www/assets/icons/android.svg

<svg width="24" height="24" viewBox="0 0 24 24" xmlns="http://www.w3.org/2000/svg" fill='currentColor'><path d="M17.6 9.79138L19.44 6.61138C19.6 6.30138 19.48 5.92138 19.18 5.76138C18.89 5.61138 18.53 5.70138 18.35 5.98138L16.47 9.22138C13.61 8.01138 10.39 8.01138 7.53 9.22138L5.65 5.98138C5.46 5.69138 5.07 5.60138 4.78 5.78138C4.5 5.96138 4.41 6.32138 4.56 6.61138L6.4 9.79138C3.3 11.5614 1.28 14.7514 1 18.3114H23C22.72 14.7514 20.7 11.5614 17.6 9.79138ZM7 15.5614C6.31 15.5614 5.75 15.0014 5.75 14.3114C5.75 13.6214 6.31 13.0614 7 13.0614C7.69 13.0614 8.25 13.6214 8.25 14.3114C8.25 15.0014 7.69 15.5614 7 15.5614ZM17 15.5614C16.31 15.5614 15.75 15.0014 15.75 14.3114C15.75 13.6214 16.31 13.0614 17 13.0614C17.69 13.0614 18.25 13.6214 18.25 14.3114C18.25 15.0014 17.69 15.5614 17 15.5614Z"/></svg>

<svg xmlns="http://www.w3.org/2000/svg" width="24" height="24" viewBox="0 0 24 24" fill='currentColor'><path d="m17.6 9.791 1.84-3.18c.16-.31.04-.69-.26-.85a.637.637 0 0 0-.83.22l-1.88 3.24a11.46 11.46 0 0 0-8.94 0l-1.88-3.24a.643.643 0 0 0-.87-.2c-.28.18-.37.54-.22.83l1.84 3.18a10.78 10.78 0 0 0-5.4 8.52h22a10.78 10.78 0 0 0-5.4-8.52M7 15.561a1.25 1.25 0 1 1 0-2.5 1.25 1.25 0 0 1 0 2.5m10 0a1.25 1.25 0 1 1 0-2.5 1.25 1.25 0 0 1 0 2.5"/></svg>
